dist/assets/img/questions/3/answers/1_1200.svg

<svg width="663" height="216" viewBox="0 0 663 216" fill="none" xmlns="http://www.w3.org/2000/svg">
<g filter="url(#filter0_di_1419_53245)">
<path fill-rule="evenodd" clip-rule="evenodd" d="M79.0905 28C75.1439 28 71.7869 30.8781 71.1843 34.7784L66.0339 68.1135C65.5425 71.2941 63.1754 73.8214 60.1296 74.861C52.5726 77.4403 45.131 81.6911 40.9816 88.3882C40.9438 88.4493 41.0024 88.5241 41.0708 88.502C44.0169 87.551 48.6867 86.0435 54.1942 85.0922C59.0521 84.2531 62.8633 88.6345 62.1106 93.5065L47.0816 190.778C46.3327 195.626 50.0826 200 54.9878 200H590.223C594.17 200 597.527 197.122 598.129 193.222L622.232 37.2215C622.981 32.3739 619.231 28 614.326 28H79.0905Z" fill="#FFF0CB"/>
</g>
<defs>
<filter id="filter0_di_1419_53245" x="0.969727" y="0" width="661.358" height="252" filterUnits="userSpaceOnUse" color-interpolation-filters="sRGB">
<feFlood flood-opacity="0" result="BackgroundImageFix"/>
<feColorMatrix in="SourceAlpha" type="matrix" values="0 0 0 0 0 0 0 0 0 0 0 0 0 0 0 0 0 0 127 0" result="hardAlpha"/>
<feOffset dy="12"/>
<feGaussianBlur stdDeviation="20"/>
<feComposite in2="hardAlpha" operator="out"/>
<feColorMatrix type="matrix" values="0 0 0 0 1 0 0 0 0 1 0 0 0 0 1 0 0 0 1 0"/>
<feBlend mode="normal" in2="BackgroundImageFix" result="effect1_dropShadow_1419_53245"/>
<feBlend mode="normal" in="SourceGraphic" in2="effect1_dropShadow_1419_53245" result="shape"/>
<feColorMatrix in="SourceAlpha" type="matrix" values="0 0 0 0 0 0 0 0 0 0 0 0 0 0 0 0 0 0 127 0" result="hardAlpha"/>
<feOffset dy="-4"/>
<feGaussianBlur stdDeviation="4"/>
<feComposite in2="hardAlpha" operator="arithmetic" k2="-1" k3="1"/>
<feColorMatrix type="matrix" values="0 0 0 0 0.883659 0 0 0 0 0.635314 0 0 0 0 0.0558422 0 0 0 0.4 0"/>
<feBlend mode="normal" in2="shape" result="effect2_innerShadow_1419_53245"/>
</filter>
</defs>
</svg>

<svg width="663" height="216" viewBox="0 0 663 216" fill="none" xmlns="http://www.w3.org/2000/svg"><g filter="url(#filter0_di_1419_53245)"><path fill-rule="evenodd" clip-rule="evenodd" d="M79.09 28a8 8 0 00-7.906 6.778l-5.15 33.336c-.492 3.18-2.859 5.707-5.904 6.747-7.557 2.58-14.999 6.83-19.148 13.527a.077.077 0 00.089.114c2.946-.951 7.616-2.459 13.123-3.41 4.858-.839 8.67 3.543 7.917 8.415l-15.03 97.271c-.748 4.848 3.002 9.222 7.907 9.222h535.235a7.999 7.999 0 007.906-6.778l24.103-156c.749-4.848-3.001-9.222-7.906-9.222H79.09z" fill="#FFF0CB"/></g><defs><filter id="filter0_di_1419_53245" x=".97" y="0" width="661.358" height="252" filterUnits="userSpaceOnUse" color-interpolation-filters="sRGB"><feFlood flood-opacity="0" result="BackgroundImageFix"/><feColorMatrix in="SourceAlpha" values="0 0 0 0 0 0 0 0 0 0 0 0 0 0 0 0 0 0 127 0" result="hardAlpha"/><feOffset dy="12"/><feGaussianBlur stdDeviation="20"/><feComposite in2="hardAlpha" operator="out"/><feColorMatrix values="0 0 0 0 1 0 0 0 0 1 0 0 0 0 1 0 0 0 1 0"/><feBlend in2="BackgroundImageFix" result="effect1_dropShadow_1419_53245"/><feBlend in="SourceGraphic" in2="effect1_dropShadow_1419_53245" result="shape"/><feColorMatrix in="SourceAlpha" values="0 0 0 0 0 0 0 0 0 0 0 0 0 0 0 0 0 0 127 0" result="hardAlpha"/><feOffset dy="-4"/><feGaussianBlur stdDeviation="4"/><feComposite in2="hardAlpha" operator="arithmetic" k2="-1" k3="1"/><feColorMatrix values="0 0 0 0 0.883659 0 0 0 0 0.635314 0 0 0 0 0.0558422 0 0 0 0.4 0"/><feBlend in2="shape" result="effect2_innerShadow_1419_53245"/></filter></defs></svg>
